X:1
T:Avington Pond
M:3/4
L:1/4
K:G
 E| E B B| B A B| G F G| D2 B,3/4 B,/4| E E E| G F E| A G A| B2 E/2F/2|\
 G G G| A G A| B c d| e d d| e d B| c B A/2A/2| B E E| F D D| E3| B3|\
 A G F| E2||
